contributed-vectors/nexo.svg

<?xml version="1.0" encoding="UTF-8" standalone="no"?>
<svg
   sodipodi:docname="nexo.svg"
   inkscape:version="1.2 (dc2aedaf03, 2022-05-15)"
   version="1.1"
   id="svg2"
   viewBox="0 0 192 192"
   height="192"
   width="192"
   inkscape:export-filename="../png/nexo.png"
   inkscape:export-xdpi="96"
   inkscape:export-ydpi="96"
   xml:space="preserve"
   xmlns:inkscape="http://www.inkscape.org/namespaces/inkscape"
   xmlns:sodipodi="http://sodipodi.sourceforge.net/DTD/sodipodi-0.dtd"
   xmlns="http://www.w3.org/2000/svg"
   xmlns:svg="http://www.w3.org/2000/svg"
   xmlns:rdf="http://www.w3.org/1999/02/22-rdf-syntax-ns#"
   xmlns:cc="http://creativecommons.org/ns#"
   xmlns:dc="http://purl.org/dc/elements/1.1/"><sodipodi:namedview
     inkscape:document-rotation="0"
     inkscape:window-maximized="1"
     inkscape:window-y="0"
     inkscape:window-x="36"
     inkscape:window-height="1052"
     inkscape:window-width="1884"
     units="px"
     showgrid="false"
     inkscape:current-layer="layer1"
     inkscape:document-units="px"
     inkscape:cy="20"
     inkscape:cx="-22.25"
     inkscape:zoom="2"
     inkscape:pageshadow="2"
     inkscape:pageopacity="0.0"
     borderopacity="1.0"
     bordercolor="#666666"
     pagecolor="#ffffff"
     id="base"
     inkscape:snap-bbox="false"
     inkscape:object-paths="true"
     inkscape:snap-nodes="true"
     showguides="true"
     inkscape:guide-bbox="true"
     inkscape:snap-object-midpoints="true"
     inkscape:snap-center="true"
     inkscape:snap-global="false"
     inkscape:snap-intersection-paths="true"
     inkscape:snap-smooth-nodes="true"
     inkscape:snap-midpoints="true"
     inkscape:showpageshadow="0"
     inkscape:pagecheckerboard="0"
     inkscape:deskcolor="#d1d1d1" /><defs
     id="defs4"><inkscape:path-effect
       effect="fillet_chamfer"
       id="path-effect6534"
       is_visible="true"
       lpeversion="1"
       nodesatellites_param="F,0,1,1,0,10,0,1 @ F,0,1,1,0,10,0,1 @ F,0,1,1,0,10,0,1 @ F,0,1,1,0,10,0,1 @ F,0,0,1,0,0,0,1 @ F,0,1,1,0,10,0,1 @ F,0,1,1,0,10,0,1 @ F,0,1,1,0,10,0,1 @ F,0,1,1,0,10,0,1 @ F,0,0,1,0,0,0,1"
       unit="px"
       method="auto"
       mode="F"
       radius="5"
       chamfer_steps="1"
       flexible="false"
       use_knot_distance="true"
       apply_no_radius="true"
       apply_with_radius="true"
       only_selected="true"
       hide_knots="false" /><clipPath
       clipPathUnits="userSpaceOnUse"
       id="clipPath6654"><path
         id="path6656"
         style="fill:#008080;fill-opacity:1;fill-rule:evenodd;stroke:none;stroke-width:5.95604;stroke-dashoffset:6;stop-color:#000000"
         inkscape:transform-center-x="5.8763292"
         d="m 45.339687,888.617 -24.678494,14.24807 a 17.320676,17.320676 120.00034 0 0 -8.660364,14.99999 l -7.78e-4,76.99414 a 17.319731,17.319731 59.999465 0 0 8.660297,14.9998 l 24.679204,14.2475 a 17.322063,17.322063 5.7885584e-4 0 0 17.320897,2e-4 l 33.341461,-19.2475 33.33783,19.248 a 17.320541,17.320541 5.789083e-4 0 0 17.32052,2e-4 l 24.67938,-14.2483 a 17.32029,17.32029 120.00031 0 0 8.66031,-14.9999 v -76.99215 a 17.320968,17.320968 60.000659 0 0 -8.66014,-15.0002 l -24.67972,-14.2496 a 17.320686,17.320686 0.00157347 0 0 -17.32055,-4.8e-4 L 95.998,907.8651 62.660159,888.61709 a 17.320362,17.320362 3.0696873e-4 0 0 -17.320472,-9e-5 z"
         sodipodi:nodetypes="ccccccccccc"
         inkscape:original-d="m 53.99995,883.61701 -41.99902,24.24805 -9.8e-4,96.99414 42,24.2471 42.00196,-24.2471 41.99804,24.2481 42,-24.2481 v -96.99215 l -42,-24.25 L 95.998,907.8651 Z"
         inkscape:path-effect="#path-effect6534" /></clipPath></defs><metadata
     id="metadata7"><rdf:RDF><cc:Work
         rdf:about=""><dc:format>image/svg+xml</dc:format><dc:type
           rdf:resource="http://purl.org/dc/dcmitype/StillImage" /></cc:Work></rdf:RDF></metadata><g
     transform="translate(0,-860.36216)"
     id="layer1"
     inkscape:groupmode="layer"
     inkscape:label="Calque 1"><g
       id="g6652"
       clip-path="url(#clipPath6654)"><path
         id="path5868"
         style="fill:#54688c;fill-opacity:1;fill-rule:evenodd;stroke:none;stroke-width:5.95604;stroke-dashoffset:6;stop-color:#000000"
         inkscape:transform-center-x="5.8763292"
         d="m 138.00059,883.61694 v 96.99514 L 180,1004.8597 v -96.99272 z"
         sodipodi:nodetypes="ccccc" /><path
         id="path5870"
         style="fill:#99bdfe;fill-opacity:1;fill-rule:evenodd;stroke:none;stroke-width:5.95604;stroke-dashoffset:6;stop-color:#000000"
         inkscape:transform-center-x="-5.8763293"
         d="M 53.999419,1029.1074 96.00117,1004.8597 53.999419,980.60982 Z M 138.00059,980.60982 V 932.11451 L 53.999419,883.61694 12.000001,907.8646 Z"
         sodipodi:nodetypes="ccccccccc" /><path
         id="path5872"
         style="fill:#99bdfe;fill-opacity:1;fill-rule:evenodd;stroke:none;stroke-width:5.95604;stroke-dashoffset:6;stop-color:#000000"
         inkscape:transform-center-x="5.8763292"
         d="m 12.000001,907.8634 v 96.9951 l 41.999418,24.2477 v -96.99276 z"
         sodipodi:nodetypes="ccccc" /><path
         id="path5874"
         style="fill:#708cbd;fill-opacity:1;fill-rule:evenodd;stroke:none;stroke-width:5.95604;stroke-dashoffset:6;stop-color:#000000"
         inkscape:transform-center-x="5.8763307"
         d="m 138.00059,883.61694 -42.001754,24.24766 42.001754,24.24991 z m -84.001171,48.49757 v 48.49531 L 138.00059,1029.1074 180,1004.8597 Z"
         sodipodi:nodetypes="ccccccccc" /><path
         id="path6615"
         style="fill:#54688c;fill-opacity:1;fill-rule:evenodd;stroke:none;stroke-width:5.95604;stroke-dashoffset:6;stop-color:#000000"
         inkscape:transform-center-x="5.8763292"
         d="m 138.00059,883.61694 v 96.99514 L 180,1004.8597 v -96.99272 z"
         sodipodi:nodetypes="ccccc" /><path
         id="path6617"
         style="fill:#99bdfe;fill-opacity:1;fill-rule:evenodd;stroke:none;stroke-width:5.95604;stroke-dashoffset:6;stop-color:#000000"
         inkscape:transform-center-x="-5.8763293"
         d="M 53.999419,1029.1074 96.00117,1004.8597 53.999419,980.60982 Z M 138.00059,980.60982 V 932.11451 L 53.999419,883.61694 12.000001,907.8646 Z"
         sodipodi:nodetypes="ccccccccc" /><path
         id="path6619"
         style="fill:#99bdfe;fill-opacity:1;fill-rule:evenodd;stroke:none;stroke-width:5.95604;stroke-dashoffset:6;stop-color:#000000"
         inkscape:transform-center-x="5.8763292"
         d="m 12.000001,907.8634 v 96.9951 l 41.999418,24.2477 v -96.99276 z"
         sodipodi:nodetypes="ccccc" /><path
         id="path6621"
         style="fill:#708cbd;fill-opacity:1;fill-rule:evenodd;stroke:none;stroke-width:5.95604;stroke-dashoffset:6;stop-color:#000000"
         inkscape:transform-center-x="5.8763307"
         d="m 138.00059,883.61694 -42.001754,24.24766 42.001754,24.24991 z m -84.001171,48.49757 v 48.49531 L 138.00059,1029.1074 180,1004.8597 Z"
         sodipodi:nodetypes="ccccccccc" /><path
         id="path6623"
         style="fill:#54688c;fill-opacity:1;fill-rule:evenodd;stroke:none;stroke-width:5.95604;stroke-dashoffset:6;stop-color:#000000"
         inkscape:transform-center-x="5.8763292"
         d="m 138.00059,883.61694 v 96.99514 L 180,1004.8597 v -96.99272 z"
         sodipodi:nodetypes="ccccc" /><path
         id="path6625"
         style="fill:#99bdfe;fill-opacity:1;fill-rule:evenodd;stroke:none;stroke-width:5.95604;stroke-dashoffset:6;stop-color:#000000"
         inkscape:transform-center-x="-5.8763293"
         d="M 53.999419,1029.1074 96.00117,1004.8597 53.999419,980.60982 Z M 138.00059,980.60982 V 932.11451 L 53.999419,883.61694 12.000001,907.8646 Z"
         sodipodi:nodetypes="ccccccccc" /><path
         id="path6627"
         style="fill:#99bdfe;fill-opacity:1;fill-rule:evenodd;stroke:none;stroke-width:5.95604;stroke-dashoffset:6;stop-color:#000000"
         inkscape:transform-center-x="5.8763292"
         d="m 12.000001,907.8634 v 96.9951 l 41.999418,24.2477 v -96.99276 z"
         sodipodi:nodetypes="ccccc" /><path
         id="path6629"
         style="fill:#708cbd;fill-opacity:1;fill-rule:evenodd;stroke:none;stroke-width:5.95604;stroke-dashoffset:6;stop-color:#000000"
         inkscape:transform-center-x="5.8763307"
         d="m 138.00059,883.61694 -42.001754,24.24766 42.001754,24.24991 z m -84.001171,48.49757 v 48.49531 L 138.00059,1029.1074 180,1004.8597 Z"
         sodipodi:nodetypes="ccccccccc" /><path
         id="path6631"
         style="fill:#fefefe;fill-opacity:0.08;fill-rule:evenodd;stroke:none;stroke-width:5.95604;stroke-dashoffset:6;stop-color:#000000"
         inkscape:transform-center-x="5.8763292"
         d="m 12.000001,907.8634 v 96.9951 l 41.999418,24.2477 v -96.99276 z"
         sodipodi:nodetypes="ccccc" /><path
         id="path6633"
         style="fill:#fefefe;fill-opacity:0.08;fill-rule:evenodd;stroke:none;stroke-width:5.95604;stroke-dashoffset:6;stop-color:#000000"
         inkscape:transform-center-x="5.8763292"
         d="m 12.000001,907.8634 v 96.9951 l 41.999418,24.2477 v -96.99276 z"
         sodipodi:nodetypes="ccccc" /><path
         id="path6635"
         style="fill:#fefefe;fill-opacity:0.08;fill-rule:evenodd;stroke:none;stroke-width:5.95604;stroke-dashoffset:6;stop-color:#000000"
         inkscape:transform-center-x="5.8763292"
         d="m 12.000001,907.8634 v 96.9951 l 41.999418,24.2477 v -96.99276 z"
         sodipodi:nodetypes="ccccc" /></g></g><style
     type="text/css"
     id="style853">
	.st0{fill:#FFFFFF;}
</style><style
     type="text/css"
     id="style853-9">
	.st0{fill:#FFFFFF;}
</style><style
     type="text/css"
     id="style853-3">
	.st0{fill:#FFFFFF;}
</style></svg>

<svg xmlns="http://www.w3.org/2000/svg" xml:space="preserve" id="svg2" width="192" height="192" version="1.1"><defs id="defs4"><clipPath id="clipPath6654" clipPathUnits="userSpaceOnUse"><path id="path6656" d="M45.34 888.617 20.66 902.865a17.32 17.32 120 0 0-8.66 15v76.994a17.32 17.32 60 0 0 8.66 15l24.679 14.248a17.322 17.322 0 0 0 17.32 0l33.342-19.248 33.338 19.248a17.32 17.32 0 0 0 17.32 0l24.68-14.248a17.32 17.32 120 0 0 8.66-15v-76.992a17.321 17.321 60 0 0-8.66-15l-24.68-14.25a17.32 17.32.002 0 0-17.32 0l-33.342 19.248-33.338-19.248a17.32 17.32 0 0 0-17.32 0z" style="fill:teal;fill-opacity:1;fill-rule:evenodd;stroke:none;stroke-width:5.95604;stroke-dashoffset:6;stop-color:#000"/></clipPath></defs><g id="layer1" transform="translate(0 -860.362)"><g id="g6652" clip-path="url(#clipPath6654)"><path id="path5868" d="M138 883.617v96.995l42 24.248v-96.993z" style="fill:#54688c;fill-opacity:1;fill-rule:evenodd;stroke:none;stroke-width:5.95604;stroke-dashoffset:6;stop-color:#000"/><path id="path5870" d="M54 1029.107 96 1004.86 54 980.61Zm84-48.497v-48.495l-84-48.498-42 24.248Z" style="fill:#99bdfe;fill-opacity:1;fill-rule:evenodd;stroke:none;stroke-width:5.95604;stroke-dashoffset:6;stop-color:#000"/><path id="path5872" d="M12 907.863v96.995l42 24.248v-96.993z" style="fill:#99bdfe;fill-opacity:1;fill-rule:evenodd;stroke:none;stroke-width:5.95604;stroke-dashoffset:6;stop-color:#000"/><path id="path5874" d="M138 883.617 96 907.865 138 932.115zm-84 48.498v48.495l84 48.497 42-24.247Z" style="fill:#708cbd;fill-opacity:1;fill-rule:evenodd;stroke:none;stroke-width:5.95604;stroke-dashoffset:6;stop-color:#000"/><path id="path6615" d="M138 883.617v96.995l42 24.248v-96.993z" style="fill:#54688c;fill-opacity:1;fill-rule:evenodd;stroke:none;stroke-width:5.95604;stroke-dashoffset:6;stop-color:#000"/><path id="path6617" d="M54 1029.107 96 1004.86 54 980.61Zm84-48.497v-48.495l-84-48.498-42 24.248Z" style="fill:#99bdfe;fill-opacity:1;fill-rule:evenodd;stroke:none;stroke-width:5.95604;stroke-dashoffset:6;stop-color:#000"/><path id="path6619" d="M12 907.863v96.995l42 24.248v-96.993z" style="fill:#99bdfe;fill-opacity:1;fill-rule:evenodd;stroke:none;stroke-width:5.95604;stroke-dashoffset:6;stop-color:#000"/><path id="path6621" d="M138 883.617 96 907.865 138 932.115zm-84 48.498v48.495l84 48.497 42-24.247Z" style="fill:#708cbd;fill-opacity:1;fill-rule:evenodd;stroke:none;stroke-width:5.95604;stroke-dashoffset:6;stop-color:#000"/><path id="path6623" d="M138 883.617v96.995l42 24.248v-96.993z" style="fill:#54688c;fill-opacity:1;fill-rule:evenodd;stroke:none;stroke-width:5.95604;stroke-dashoffset:6;stop-color:#000"/><path id="path6625" d="M54 1029.107 96 1004.86 54 980.61Zm84-48.497v-48.495l-84-48.498-42 24.248Z" style="fill:#99bdfe;fill-opacity:1;fill-rule:evenodd;stroke:none;stroke-width:5.95604;stroke-dashoffset:6;stop-color:#000"/><path id="path6627" d="M12 907.863v96.995l42 24.248v-96.993z" style="fill:#99bdfe;fill-opacity:1;fill-rule:evenodd;stroke:none;stroke-width:5.95604;stroke-dashoffset:6;stop-color:#000"/><path id="path6629" d="M138 883.617 96 907.865 138 932.115zm-84 48.498v48.495l84 48.497 42-24.247Z" style="fill:#708cbd;fill-opacity:1;fill-rule:evenodd;stroke:none;stroke-width:5.95604;stroke-dashoffset:6;stop-color:#000"/><path id="path6631" d="M12 907.863v96.995l42 24.248v-96.993z" style="fill:#fefefe;fill-opacity:.08;fill-rule:evenodd;stroke:none;stroke-width:5.95604;stroke-dashoffset:6;stop-color:#000"/><path id="path6633" d="M12 907.863v96.995l42 24.248v-96.993z" style="fill:#fefefe;fill-opacity:.08;fill-rule:evenodd;stroke:none;stroke-width:5.95604;stroke-dashoffset:6;stop-color:#000"/><path id="path6635" d="M12 907.863v96.995l42 24.248v-96.993z" style="fill:#fefefe;fill-opacity:.08;fill-rule:evenodd;stroke:none;stroke-width:5.95604;stroke-dashoffset:6;stop-color:#000"/></g></g><style id="style853" type="text/css">.st0{fill:#fff}</style></svg>
